assets/svg/header/contacts.svg

<svg width="25" height="24" viewBox="0 0 25 24" fill="none" xmlns="http://www.w3.org/2000/svg">
<path fill-rule="evenodd" clip-rule="evenodd" d="M0.5 3.42857C0.5 2.51926 0.861224 1.64719 1.50421 1.00421C2.14719 0.361224 3.01926 0 3.92857 0H5.49657C6.47943 0 7.33657 0.669714 7.57543 1.62286L8.83829 6.67771C8.93986 7.08687 8.91882 7.51687 8.77779 7.91416C8.63676 8.31145 8.38196 8.65847 8.04514 8.912L6.56743 10.0206C6.41314 10.136 6.38 10.3051 6.42343 10.4229C7.06877 12.1768 8.08742 13.7696 9.40892 15.0911C10.7304 16.4126 12.3232 17.4312 14.0771 18.0766C14.1949 18.12 14.3629 18.0869 14.4794 17.9326L15.588 16.4549C15.8415 16.118 16.1886 15.8632 16.5858 15.7222C16.9831 15.5812 17.4131 15.5601 17.8223 15.6617L22.8771 16.9246C23.8303 17.1634 24.5 18.0206 24.5 19.0046V20.5714C24.5 21.4807 24.1388 22.3528 23.4958 22.9958C22.8528 23.6388 21.9807 24 21.0714 24H18.5C8.55943 24 0.5 15.9406 0.5 6V3.42857Z" fill="#151515"/>
</svg>

<svg xmlns="http://www.w3.org/2000/svg" width="25" height="24" fill="none"><path fill="#151515" fill-rule="evenodd" d="M.5 3.429A3.43 3.43 0 0 1 3.929 0h1.568c.982 0 1.84.67 2.078 1.623l1.263 5.055a2.15 2.15 0 0 1-.793 2.234l-1.478 1.109c-.154.115-.187.284-.144.402a12.9 12.9 0 0 0 7.654 7.654c.118.043.286.01.402-.144l1.109-1.478a2.15 2.15 0 0 1 2.234-.793l5.055 1.263a2.144 2.144 0 0 1 1.623 2.08v1.566A3.43 3.43 0 0 1 21.071 24H18.5C8.56 24 .5 15.94.5 6z" clip-rule="evenodd"/></svg>
